icons/3_Generic/Pound.svg

<svg width="1024" height="1024" viewBox="0 0 1024 1024" fill="none" xmlns="http://www.w3.org/2000/svg">
<g clip-path="url(#clip0_3_428)">
<path d="M512 1024C794.77 1024 1024 794.77 1024 512C1024 229.23 794.77 0 512 0C229.23 0 0 229.23 0 512C0 794.77 229.23 1024 512 1024Z" fill="#8C72BD"/>
<path d="M684 735.612C684 744.982 676.4 752.582 667.03 752.582H304.97C295.6 752.582 288 744.982 288 735.612C288 726.242 295.6 718.642 304.97 718.642H316.28C363.15 718.642 401.14 680.652 401.14 633.782V526.292H304.97C295.6 526.292 288 518.692 288 509.322C288 499.952 295.6 492.352 304.97 492.352H401.14V384.862C401.14 306.752 464.45 243.432 542.56 243.422C575.4 243.422 607.21 254.842 632.55 275.732C639.78 281.702 640.81 292.402 634.84 299.632C628.87 306.862 618.17 307.892 610.94 301.922C565.13 264.162 497.39 270.692 459.63 316.492C443.764 335.74 435.088 359.908 435.09 384.852V492.342H531.26C540.63 492.342 548.23 499.942 548.23 509.312C548.23 518.682 540.63 526.282 531.26 526.282H435.09V633.772C435.11 665.722 422.23 696.322 399.37 718.632H667.04C676.41 718.632 684.01 726.232 684.01 735.602L684 735.612Z" fill="white"/>
</g>
<defs>
<clipPath id="clip0_3_428">
<rect width="1024" height="1024" fill="white"/>
</clipPath>
</defs>
</svg>

<svg xmlns="http://www.w3.org/2000/svg" width="1024" height="1024" fill="none">
   <g clip-path="url(#a)">
      <path fill="#8C72BD" d="M512 1024c282.77 0 512-229.23 512-512S794.77 0 512 0 0 229.23 0 512s229.23 512 512 512Z"/>
      <path fill="#fff" d="M684 735.612c0 9.37-7.6 16.97-16.97 16.97H304.97c-9.37 0-16.97-7.6-16.97-16.97s7.6-16.97 16.97-16.97h11.31c46.87 0 84.86-37.99 84.86-84.86v-107.49h-96.17c-9.37 0-16.97-7.6-16.97-16.97s7.6-16.97 16.97-16.97h96.17v-107.49c0-78.11 63.31-141.43 141.42-141.44 32.84 0 64.65 11.42 89.99 32.31 7.23 5.97 8.26 16.67 2.29 23.9-5.97 7.23-16.67 8.26-23.9 2.29-45.81-37.76-113.55-31.23-151.31 14.57a107.461 107.461 0 0 0-24.54 68.36v107.49h96.17c9.37 0 16.97 7.6 16.97 16.97s-7.6 16.97-16.97 16.97h-96.17v107.49c.02 31.95-12.86 62.55-35.72 84.86h267.67c9.37 0 16.97 7.6 16.97 16.97l-.01.01Z"/>
   </g>
   <defs>
      <clipPath id="a">
         <path fill="#fff" d="M0 0h1024v1024H0z"/>
      </clipPath>
   </defs>
</svg>
